web-magafilio/image/header/icon-afiliado.svg

<svg width="25" height="25" viewBox="0 0 25 25" fill="none" xmlns="http://www.w3.org/2000/svg">
<g clip-path="url(#clip0)">
<path d="M8.50761 14.6395L4.00761 19.1395L5.50761 20.6395L9.00761 17.1395H11.0076L8.50761 14.6395ZM15.0076 1.13947C13.9076 1.13947 13.0076 2.03947 13.0076 3.13947C13.0076 4.23947 13.9076 5.13947 15.0076 5.13947C16.1076 5.13947 17.0076 4.23947 17.0076 3.13947C17.0076 2.03947 16.1076 1.13947 15.0076 1.13947ZM21.0076 21.1495L18.0076 24.1395L15.0176 21.1295V19.6395L7.91761 12.5495C7.60761 12.5995 7.30761 12.6195 7.00761 12.6195V10.4595C8.66761 10.4895 10.6176 9.58947 11.6776 8.41947L13.0776 6.86947C13.2676 6.65947 13.5076 6.48947 13.7676 6.36947C14.0576 6.22947 14.3876 6.13947 14.7276 6.13947H14.7576C15.9976 6.14947 17.0076 7.15947 17.0076 8.39947V14.1495C17.0076 14.9895 16.6576 15.7595 16.0876 16.3095L12.5076 12.7295V10.4595C11.8776 10.9795 11.0776 11.4795 10.2176 11.8495L16.5076 18.1395H18.0076L21.0076 21.1495Z" fill="black"/>
</g>
<defs>
<clipPath id="clip0">
<rect x="0.00761414" y="0.139465" width="24" height="24" fill="white"/>
</clipPath>
</defs>
</svg>

<svg width="25" height="25" fill="none" xmlns="http://www.w3.org/2000/svg"><g clip-path="url(#clip0)"><path d="M8.508 14.64l-4.5 4.5 1.5 1.5 3.5-3.5h2l-2.5-2.5zm6.5-13.5c-1.1 0-2 .9-2 2s.9 2 2 2 2-.9 2-2-.9-2-2-2zm6 20.01l-3 2.99-2.99-3.01v-1.49l-7.1-7.09c-.31.05-.61.07-.91.07v-2.16c1.66.03 3.61-.87 4.67-2.04l1.4-1.55c.19-.21.43-.38.69-.5.29-.14.62-.23.96-.23h.03c1.24.01 2.25 1.02 2.25 2.26v5.75c0 .84-.35 1.61-.92 2.16l-3.58-3.58v-2.27c-.63.52-1.43 1.02-2.29 1.39l6.29 6.29h1.5l3 3.01z" fill="#000"/></g><defs><clipPath id="clip0"><path fill="#fff" d="M.008.139h24v24h-24z"/></clipPath></defs></svg>
